build/img/project/Icon-6.svg

<svg id="Icon-6" viewBox="0 0 72 72"  xmlns="http://www.w3.org/2000/svg">
<path fill-rule="evenodd" clip-rule="evenodd" d="M47.7261 6C57.1581 6 63.4941 12.459 63.4941 22.071V49.659C63.4941 59.355 57.3531 65.661 47.8491 65.721L24.7701 65.73C15.3381 65.73 8.99908 59.271 8.99908 49.659V22.071C8.99908 12.372 15.1401 6.069 24.6441 6.012L47.7231 6H47.7261ZM47.7261 10.5L24.6591 10.512C17.6751 10.554 13.4991 14.874 13.4991 22.071V49.659C13.4991 56.904 17.7141 61.23 24.7671 61.23L47.8341 61.221C54.8181 61.179 58.9941 56.853 58.9941 49.659V22.071C58.9941 14.826 54.7821 10.5 47.7261 10.5ZM47.1474 46.4211C48.3894 46.4211 49.3974 47.4291 49.3974 48.6711C49.3974 49.9131 48.3894 50.9211 47.1474 50.9211H25.4874C24.2454 50.9211 23.2374 49.9131 23.2374 48.6711C23.2374 47.4291 24.2454 46.4211 25.4874 46.4211H47.1474ZM47.1474 33.8616C48.3894 33.8616 49.3974 34.8696 49.3974 36.1116C49.3974 37.3536 48.3894 38.3616 47.1474 38.3616H25.4874C24.2454 38.3616 23.2374 37.3536 23.2374 36.1116C23.2374 34.8696 24.2454 33.8616 25.4874 33.8616H47.1474ZM33.7515 21.3312C34.9935 21.3312 36.0015 22.3392 36.0015 23.5812C36.0015 24.8232 34.9935 25.8312 33.7515 25.8312H25.4865C24.2445 25.8312 23.2365 24.8232 23.2365 23.5812C23.2365 22.3392 24.2445 21.3312 25.4865 21.3312H33.7515Z"/>
</svg>

<svg id="Icon-6" viewBox="0 0 72 72" xmlns="http://www.w3.org/2000/svg"><path fill-rule="evenodd" clip-rule="evenodd" d="M47.726 6c9.432 0 15.768 6.459 15.768 16.071v27.588c0 9.696-6.14 16.002-15.645 16.062l-23.079.009C15.338 65.73 9 59.271 9 49.659V22.071c0-9.699 6.14-16.002 15.644-16.059L47.724 6h.002zm0 4.5l-23.067.012c-6.984.042-11.16 4.362-11.16 11.559v27.588c0 7.245 4.215 11.571 11.268 11.571l23.067-.009c6.984-.042 11.16-4.368 11.16-11.562V22.071c0-7.245-4.212-11.571-11.268-11.571zm-.579 35.921a2.25 2.25 0 010 4.5h-21.66a2.25 2.25 0 010-4.5h21.66zm0-12.56a2.25 2.25 0 010 4.5h-21.66a2.25 2.25 0 010-4.5h21.66zm-13.395-12.53a2.25 2.25 0 010 4.5h-8.266a2.25 2.25 0 010-4.5h8.265z"/></svg>
